Login-Hudl-Statsbomb-Live.svg

<?xml version="1.0" encoding="UTF-8" standalone="no"?>
<svg
   width="149.13785"
   height="16.791039"
   viewBox="0 0 149.13785 16.791039"
   fill="none"
   version="1.1"
   id="svg39"
   sodipodi:docname="Login-Hudl-Statsbomb-Live.svg"
   xmlns:inkscape="http://www.inkscape.org/namespaces/inkscape"
   xmlns:sodipodi="http://sodipodi.sourceforge.net/DTD/sodipodi-0.dtd"
   xmlns="http://www.w3.org/2000/svg"
   xmlns:svg="http://www.w3.org/2000/svg">
  <sodipodi:namedview
     id="namedview41"
     pagecolor="#ffffff"
     bordercolor="#000000"
     borderopacity="0.25"
     inkscape:showpageshadow="2"
     inkscape:pageopacity="0.0"
     inkscape:pagecheckerboard="0"
     inkscape:deskcolor="#d1d1d1"
     showgrid="false" />
  <g
     clip-path="url(#clip0_272_1964)"
     id="g24"
     transform="translate(-0.43115252,-67.708961)">
    <path
       fill-rule="evenodd"
       clip-rule="evenodd"
       d="m 12.8647,77.8583 c -0.0159,0 -0.0351,-0.0064 -0.0446,-0.0225 -0.0096,-0.0128 -0.0127,-0.032 -0.0096,-0.048 0.3028,-0.9799 0.4048,-2.0112 0.2996,-3.0296 0,-0.0192 -0.0127,-0.0352 -0.0318,-0.0416 -1.0102,-0.474 -1.6571,-1.4892 -1.6634,-2.6069 0,-0.3779 0.0701,-0.7493 0.2102,-1.0984 0.0065,-0.0192 0.0065,-0.0384 -0.0063,-0.0545 -0.172,-0.2241 -0.3537,-0.4419 -0.5481,-0.6469 C 9.96503,69.141 8.51836,68.3532 6.94105,68.0554 6.91556,68.0522 6.89644,68.0298 6.89644,68.0009 c 0,-0.0256 0.01593,-0.048 0.04143,-0.0544 2.25922,-0.5861 4.66183,-0.0737 6.49083,1.3835 0.0095,0.0064 0.0224,0.0128 0.0319,0.0128 0.0064,0 0.0096,0 0.0159,0 0.2581,-0.0801 0.529,-0.1185 0.7998,-0.1185 1.1759,-0.0032 2.2369,0.7174 2.6704,1.8158 0.4333,1.0985 0.156,2.3538 -0.7011,3.1641 -0.0127,0.0128 -0.0191,0.0288 -0.0159,0.0448 0.0445,0.3331 0.0669,0.6693 0.0701,1.0088 0,0.032 0,0.0608 -0.0032,0.0929 v 0.0576 c 0,0 -0.0095,0.0224 -0.0159,0.032 -0.8859,1.1081 -2.0649,1.944 -3.4001,2.4148 h -0.0191 z m -9.39692,2.6868 c 0,0 -0.02868,-0.0064 -0.03824,-0.016 -1.62192,-1.6557 -2.38986,-3.9775 -2.0744,-6.2801 0,-0.016 -0.00319,-0.0352 -0.01593,-0.0448 C 0.367328,73.2915 0.150646,71.8279 0.810249,70.6686 1.46985,69.5093 2.83367,68.9585 4.10826,69.3364 c 0.01594,0.0064 0.03505,0 0.0478,-0.0096 0.32183,-0.2562 0.66279,-0.4836 1.01968,-0.6854 0.00637,-0.0032 0.01592,-0.0064 0.02549,-0.0064 1.40205,0.2178 2.71807,0.8263 3.7951,1.7582 0.01593,0.0128 0.02231,0.0352 0.01593,0.0544 -0.00319,0.0193 -0.01911,0.0353 -0.04142,0.0385 -1.01012,0.2274 -1.96288,0.6661 -2.79773,1.281 -0.01594,0.0096 -0.02231,0.0288 -0.02231,0.048 0.00956,0.0961 0.01593,0.1954 0.01593,0.2914 -0.00956,1.4316 -1.05791,2.6421 -2.46953,2.8471 -0.01911,0 -0.03505,0.016 -0.04142,0.032 -0.10197,0.2466 -0.19118,0.506 -0.26448,0.7622 -0.45248,1.5468 -0.40787,3.1993 0.12746,4.7204 0.00638,0.0161 0.00319,0.0353 -0.00638,0.0481 -0.00955,0.0128 -0.02867,0.0224 -0.0446,0.0224 z m 5.35329,3.9551 C 7.4955,84.5002 6.3388,83.5875 6.02653,82.2905 6.02334,82.2744 6.01059,82.2584 5.99466,82.252 5.61547,82.0984 5.25221,81.9158 4.90488,81.7044 4.89532,81.698 4.88577,81.6884 4.88257,81.6788 4.37274,80.353 4.24209,78.9119 4.50657,77.5156 4.50976,77.4964 4.52569,77.4804 4.54481,77.474 h 0.00956 c 0.01594,0 0.03186,0.0032 0.04461,0.016 0.70102,0.7621 1.55182,1.3706 2.49821,1.7902 0.00637,0 0.01274,0.0032 0.02231,0.0032 0.01274,0 0.02229,-0.0032 0.03186,-0.0096 1.2491,-0.9 2.98254,-0.6502 3.92894,0.5668 0.0096,0.0128 0.0255,0.0224 0.0414,0.0192 h 0.0064 c 0.2613,-0.0352 0.5289,-0.0865 0.7902,-0.1506 1.5614,-0.3811 2.9666,-1.2489 4.0119,-2.4755 0.0095,-0.0128 0.0254,-0.0192 0.0413,-0.0192 0.0097,0 0.0192,0 0.0256,0.0064 0.0222,0.0128 0.0318,0.0384 0.0254,0.0609 -0.6309,2.2353 -2.2433,4.0608 -4.3782,4.951 -0.0159,0.0064 -0.0287,0.0192 -0.0319,0.0384 -0.3027,1.3003 -1.4562,2.2226 -2.78496,2.2258 z"
       fill="#ff6300"
       id="path2" />
    <path
       d="m 27.1742,82.2905 h -3.2148 v -5.6913 c 0,-0.6175 -0.2984,-0.9513 -0.9777,-0.9513 -0.2487,0 -0.4972,0.0501 -0.6795,0.1336 v 6.509 H 19.0874 V 69.189 h 3.2148 v 4.2559 c 0.464,-0.1836 1.0274,-0.3004 1.5908,-0.3004 2.1543,0 3.2812,1.1015 3.2812,3.1043 z m 9.5786,-0.4506 c -0.8618,0.4006 -2.4029,0.6675 -3.8943,0.6675 -2.7507,0 -4.1262,-1.0013 -4.1262,-3.5215 v -5.6912 h 3.2148 v 5.7746 c 0,0.5675 0.3149,0.8178 0.9114,0.8178 0.2983,0 0.5469,-0.0334 0.6795,-0.0834 v -6.509 h 3.2148 z m 9.663,0 c -0.7623,0.3839 -2.1211,0.6675 -3.6954,0.6675 -3.049,0 -4.6896,-1.6355 -4.6896,-4.7231 0,-2.7873 1.4251,-4.5731 4.2256,-4.5731 0.3149,0 0.7126,0.0668 0.9445,0.1335 V 69.189 h 3.2149 z M 43.2009,79.9373 V 75.698 c -0.0993,-0.0501 -0.348,-0.1001 -0.5799,-0.1001 -0.8948,0 -1.3754,0.8512 -1.3754,2.1529 0,1.5355 0.4972,2.2532 1.4085,2.2532 0.2155,0 0.4309,-0.0167 0.5468,-0.0667 z m 8.0684,2.3532 H 48.0545 V 69.189 h 3.2148 z"
       fill="#000000"
       id="path4" />
    <path
       d="m 55.397,82.4741 c 2.1045,0 3.3307,-1.0347 3.3307,-2.587 0,-1.6856 -1.2593,-2.1863 -2.585,-2.6871 -0.9446,-0.3504 -1.7566,-0.6842 -1.7566,-1.6689 0,-0.751 0.6132,-1.3352 1.6902,-1.3352 0.7126,0 1.3755,0.217 1.8726,0.5341 l 0.4806,-0.9847 c -0.6794,-0.4006 -1.5743,-0.6342 -2.4856,-0.6342 -1.8892,0 -2.9663,1.0181 -2.9663,2.42 0,1.6189 1.2429,2.1864 2.5022,2.6537 1.044,0.3839 1.8063,0.7511 1.8063,1.7023 0,0.8846 -0.7623,1.4521 -1.9057,1.4521 -0.7126,0 -1.5411,-0.2337 -2.1377,-0.5675 l -0.4971,1.0682 c 0.7954,0.4172 1.7234,0.6342 2.6514,0.6342 z"
       fill="#ff6300"
       id="path6" />
    <path
       d="m 63.0071,82.3907 c 0.3811,0 0.7291,-0.0668 0.9114,-0.1502 v -1.1683 c -0.1326,0.05 -0.3645,0.0834 -0.58,0.0834 -0.7291,0 -1.3422,-0.3505 -1.3422,-1.2685 v -5.541 h 1.9222 V 73.2947 H 61.9963 V 70.6744 L 60.654,71.125 v 2.1697 h -1.2925 v 1.0514 h 1.2925 v 5.6078 c 0,1.6356 0.8949,2.4368 2.3531,2.4368 z"
       fill="#ff6300"
       id="path8" />
    <path
       d="m 76.1488,82.3907 c 0.3811,0 0.7291,-0.0668 0.9114,-0.1502 v -1.1683 c -0.1326,0.05 -0.3646,0.0834 -0.58,0.0834 -0.7291,0 -1.3422,-0.3505 -1.3422,-1.2685 v -5.541 h 1.9222 V 73.2947 H 75.138 v -2.6203 l -1.3423,0.4506 v 2.1697 h -1.2926 v 1.0514 h 1.2926 v 5.6078 c 0,1.6356 0.8949,2.4368 2.3531,2.4368 z"
       fill="#ff6300"
       id="path10" />
    <path
       d="m 80.3857,82.4741 c 2.1045,0 3.3308,-1.0347 3.3308,-2.587 0,-1.6856 -1.2594,-2.1863 -2.5851,-2.6871 -0.9446,-0.3504 -1.7565,-0.6842 -1.7565,-1.6689 0,-0.751 0.6131,-1.3352 1.6902,-1.3352 0.7125,0 1.3754,0.217 1.8726,0.5341 l 0.4805,-0.9847 c -0.6794,-0.4006 -1.5742,-0.6342 -2.4857,-0.6342 -1.8891,0 -2.9662,1.0181 -2.9662,2.42 0,1.6189 1.2428,2.1864 2.5023,2.6537 1.0439,0.3839 1.8062,0.7511 1.8062,1.7023 0,0.8846 -0.7623,1.4521 -1.9057,1.4521 -0.7126,0 -1.5411,-0.2337 -2.1376,-0.5675 l -0.4972,1.0682 c 0.7954,0.4172 1.7234,0.6342 2.6514,0.6342 z"
       fill="#ff6300"
       id="path12" />
    <path
       d="m 112.819,82.2905 h 1.376 v -6.3088 c 0,-1.7524 -1.21,-2.8706 -3.049,-2.8706 -1.309,0 -2.37,0.5174 -2.916,1.0348 -0.481,-0.5675 -1.442,-1.0348 -2.834,-1.0348 -1.16,0 -2.221,0.267 -3.082,0.6342 v 8.5452 h 1.392 v -7.7274 c 0.447,-0.1836 1.06,-0.3171 1.773,-0.3171 1.243,0 2.088,0.6175 2.088,1.6356 v 6.4089 h 1.375 v -7.2768 c 0.431,-0.4673 1.11,-0.7677 1.939,-0.7677 1.127,0 1.938,0.6843 1.938,1.8526 z"
       fill="#ff6300"
       id="path14" />
    <path
       fill-rule="evenodd"
       clip-rule="evenodd"
       d="m 71.5174,81.8399 c -0.6296,0.3504 -1.9056,0.6342 -3.0822,0.6342 -2.4525,0 -3.6788,-1.0515 -3.6788,-2.7538 0,-2.5703 2.7508,-2.9542 5.4519,-3.1044 v -0.6842 c 0,-1.3352 -0.8783,-1.7525 -2.1211,-1.7525 -0.8285,0 -1.856,0.2671 -2.436,0.5508 l -0.3645,-0.9847 c 0.6794,-0.3171 1.8063,-0.6342 2.9164,-0.6342 2.0052,0 3.3143,0.8011 3.3143,2.9374 z m -1.3091,-4.256 v 3.555 c -0.3149,0.1502 -1.1268,0.2837 -1.8062,0.2837 -1.5578,0 -2.3366,-0.6843 -2.3366,-1.7358 0,-1.8595 2.1321,-1.9848 4.112,-2.1011 z"
       fill="#ff6300"
       id="path16" />
    <path
       fill-rule="evenodd"
       clip-rule="evenodd"
       d="m 92.2195,77.6174 c 0,3.3879 -1.7896,4.8567 -4.2918,4.8567 -1.0938,0 -2.1544,-0.2838 -2.8337,-0.6342 V 69.189 h 1.3919 v 4.3727 c 0.464,-0.217 1.1766,-0.4006 1.856,-0.4006 2.3034,0 3.8776,1.6857 3.8776,4.4563 z m -4.0599,-3.3547 c 1.6074,0 2.668,1.2851 2.668,3.4381 0,2.587 -1.2429,3.6384 -2.8337,3.6384 -0.6131,0 -1.2096,-0.1336 -1.508,-0.2837 v -6.4256 c 0.4143,-0.217 1.0772,-0.3672 1.6737,-0.3672 z"
       fill="#ff6300"
       id="path18" />
    <path
       fill-rule="evenodd"
       clip-rule="evenodd"
       d="m 100.881,77.7843 c 0,2.6703 -1.3257,4.6898 -3.7947,4.6898 -2.4691,0 -3.7948,-2.0195 -3.7948,-4.6898 0,-2.6704 1.3257,-4.6732 3.7948,-4.6732 2.469,0 3.7947,2.0028 3.7947,4.6732 z M 97.0863,74.246 c 1.6239,0 2.4193,1.452 2.4193,3.5215 0,2.0696 -0.7954,3.555 -2.4193,3.555 -1.624,0 -2.4194,-1.4854 -2.4194,-3.555 0,-2.0695 0.7954,-3.5215 2.4194,-3.5215 z"
       fill="#ff6300"
       id="path20" />
    <path
       fill-rule="evenodd"
       clip-rule="evenodd"
       d="m 123.082,77.6174 c 0,3.3879 -1.79,4.8567 -4.292,4.8567 -1.093,0 -2.154,-0.2838 -2.834,-0.6342 V 69.189 h 1.392 v 4.3727 c 0.464,-0.217 1.177,-0.4006 1.856,-0.4006 2.304,0 3.878,1.6857 3.878,4.4563 z m -4.06,-3.3547 c 1.608,0 2.668,1.2851 2.668,3.4381 0,2.587 -1.242,3.6384 -2.834,3.6384 -0.613,0 -1.21,-0.1336 -1.508,-0.2837 v -6.4256 c 0.415,-0.217 1.077,-0.3672 1.674,-0.3672 z"
       fill="#ff6300"
       id="path22" />
  </g>
  <path
     d="M 144.33585,11.561039 V 5.2910385 h 4.67 v 1.0545 h -3.368 v 1.558 h 2.651 v 1.007 h -2.651 v 1.5960005 h 3.5 v 1.0545 z"
     fill="#000000"
     id="path26" />
  <path
     d="m 143.20385,5.2910385 -2.264,6.2700005 h -1.519 l -2.274,-6.2700005 h 1.378 l 1.311,3.99 0.358,1.2350005 0.35,-1.2255005 1.32,-3.9995 z"
     fill="#000000"
     id="path28" />
  <path
     d="m 136.01885,5.2910385 v 6.2700005 h -1.302 V 5.2910385 Z"
     fill="#000000"
     id="path30" />
  <path
     d="m 130.16385,10.506539 h 3.284 v 1.0545 h -4.586 V 5.2910385 h 1.302 z"
     fill="#000000"
     id="path32" />
  <defs
     id="defs37">
    <clipPath
       id="clip0_272_1964">
      <rect
         width="123.828"
         height="19"
         fill="#ffffff"
         transform="translate(0.431152,65.5)"
         id="rect34"
         x="0"
         y="0" />
    </clipPath>
  </defs>
</svg>

<svg width="150" height="150" viewBox="0 0 150 150" fill="none" xmlns="http://www.w3.org/2000/svg">
<g clip-path="url(#clip0_272_1964)">
<path fill-rule="evenodd" clip-rule="evenodd" d="M12.8647 77.8583C12.8488 77.8583 12.8296 77.8519 12.8201 77.8358C12.8105 77.823 12.8074 77.8038 12.8105 77.7878C13.1133 76.8079 13.2153 75.7766 13.1101 74.7582C13.1101 74.739 13.0974 74.723 13.0783 74.7166C12.0681 74.2426 11.4212 73.2274 11.4149 72.1097C11.4149 71.7318 11.485 71.3604 11.6251 71.0113C11.6316 70.9921 11.6316 70.9729 11.6188 70.9568C11.4468 70.7327 11.2651 70.5149 11.0707 70.3099C9.96503 69.141 8.51836 68.3532 6.94105 68.0554C6.91556 68.0522 6.89644 68.0298 6.89644 68.0009C6.89644 67.9753 6.91237 67.9529 6.93787 67.9465C9.19709 67.3604 11.5997 67.8728 13.4287 69.33C13.4382 69.3364 13.4511 69.3428 13.4606 69.3428C13.467 69.3428 13.4702 69.3428 13.4765 69.3428C13.7346 69.2627 14.0055 69.2243 14.2763 69.2243C15.4522 69.2211 16.5132 69.9417 16.9467 71.0401C17.38 72.1386 17.1027 73.3939 16.2456 74.2042C16.2329 74.217 16.2265 74.233 16.2297 74.249C16.2742 74.5821 16.2966 74.9183 16.2998 75.2578C16.2998 75.2898 16.2998 75.3186 16.2966 75.3507V75.4083C16.2966 75.4083 16.2871 75.4307 16.2807 75.4403C15.3948 76.5484 14.2158 77.3843 12.8806 77.8551H12.8615L12.8647 77.8583ZM3.46778 80.5451C3.46778 80.5451 3.4391 80.5387 3.42954 80.5291C1.80762 78.8734 1.03968 76.5516 1.35514 74.249C1.35514 74.233 1.35195 74.2138 1.33921 74.2042C0.367328 73.2915 0.150646 71.8279 0.810249 70.6686C1.46985 69.5093 2.83367 68.9585 4.10826 69.3364C4.1242 69.3428 4.14331 69.3364 4.15606 69.3268C4.47789 69.0706 4.81885 68.8432 5.17574 68.6414C5.18211 68.6382 5.19166 68.635 5.20123 68.635C6.60328 68.8528 7.9193 69.4613 8.99633 70.3932C9.01226 70.406 9.01864 70.4284 9.01226 70.4476C9.00907 70.4669 8.99315 70.4829 8.97084 70.4861C7.96072 70.7135 7.00796 71.1522 6.17311 71.7671C6.15717 71.7767 6.1508 71.7959 6.1508 71.8151C6.16036 71.9112 6.16673 72.0105 6.16673 72.1065C6.15717 73.5381 5.10882 74.7486 3.6972 74.9536C3.67809 74.9536 3.66215 74.9696 3.65578 74.9856C3.55381 75.2322 3.4646 75.4916 3.3913 75.7478C2.93882 77.2946 2.98343 78.9471 3.51876 80.4682C3.52514 80.4843 3.52195 80.5035 3.51238 80.5163C3.50283 80.5291 3.48371 80.5387 3.46778 80.5387V80.5451ZM8.82107 84.5002C7.4955 84.5002 6.3388 83.5875 6.02653 82.2905C6.02334 82.2744 6.01059 82.2584 5.99466 82.252C5.61547 82.0984 5.25221 81.9158 4.90488 81.7044C4.89532 81.698 4.88577 81.6884 4.88257 81.6788C4.37274 80.353 4.24209 78.9119 4.50657 77.5156C4.50976 77.4964 4.52569 77.4804 4.54481 77.474H4.55437C4.57031 77.474 4.58623 77.4772 4.59898 77.49C5.3 78.2521 6.1508 78.8606 7.09719 79.2802C7.10356 79.2802 7.10993 79.2834 7.1195 79.2834C7.13224 79.2834 7.14179 79.2802 7.15136 79.2738C8.40046 78.3738 10.1339 78.6236 11.0803 79.8406C11.0899 79.8534 11.1058 79.863 11.1217 79.8598H11.1281C11.3894 79.8246 11.657 79.7733 11.9183 79.7092C13.4797 79.3281 14.8849 78.4603 15.9302 77.2337C15.9397 77.2209 15.9556 77.2145 15.9715 77.2145C15.9812 77.2145 15.9907 77.2145 15.9971 77.2209C16.0193 77.2337 16.0289 77.2593 16.0225 77.2818C15.3916 79.5171 13.7792 81.3426 11.6443 82.2328C11.6284 82.2392 11.6156 82.252 11.6124 82.2712C11.3097 83.5715 10.1562 84.4938 8.82744 84.497L8.82107 84.5002Z" fill="#FF6300"/>
<path d="M27.1742 82.2905H23.9594V76.5992C23.9594 75.9817 23.661 75.6479 22.9817 75.6479C22.733 75.6479 22.4845 75.698 22.3022 75.7815V82.2905H19.0874V69.189H22.3022V73.4449C22.7662 73.2613 23.3296 73.1445 23.893 73.1445C26.0473 73.1445 27.1742 74.246 27.1742 76.2488V82.2905ZM36.7528 81.8399C35.891 82.2405 34.3499 82.5074 32.8585 82.5074C30.1078 82.5074 28.7323 81.5061 28.7323 78.9859V73.2947H31.9471V79.0693C31.9471 79.6368 32.262 79.8871 32.8585 79.8871C33.1568 79.8871 33.4054 79.8537 33.538 79.8037V73.2947H36.7528V81.8399ZM46.4158 81.8399C45.6535 82.2238 44.2947 82.5074 42.7204 82.5074C39.6714 82.5074 38.0308 80.8719 38.0308 77.7843C38.0308 74.997 39.4559 73.2112 42.2564 73.2112C42.5713 73.2112 42.969 73.278 43.2009 73.3447V69.189H46.4158V81.8399ZM43.2009 79.9373V75.698C43.1016 75.6479 42.8529 75.5979 42.621 75.5979C41.7262 75.5979 41.2456 76.4491 41.2456 77.7508C41.2456 79.2863 41.7428 80.004 42.6541 80.004C42.8696 80.004 43.085 79.9873 43.2009 79.9373ZM51.2693 82.2905H48.0545V69.189H51.2693V82.2905Z" fill="black"/>
<path d="M55.397 82.4741C57.5015 82.4741 58.7277 81.4394 58.7277 79.8871C58.7277 78.2015 57.4684 77.7008 56.1427 77.2C55.1981 76.8496 54.3861 76.5158 54.3861 75.5311C54.3861 74.7801 54.9993 74.1959 56.0763 74.1959C56.7889 74.1959 57.4518 74.4129 57.9489 74.73L58.4295 73.7453C57.7501 73.3447 56.8552 73.1111 55.9439 73.1111C54.0547 73.1111 52.9776 74.1292 52.9776 75.5311C52.9776 77.15 54.2205 77.7175 55.4798 78.1848C56.5238 78.5687 57.2861 78.9359 57.2861 79.8871C57.2861 80.7717 56.5238 81.3392 55.3804 81.3392C54.6678 81.3392 53.8393 81.1055 53.2427 80.7717L52.7456 81.8399C53.541 82.2571 54.469 82.4741 55.397 82.4741Z" fill="#FF6300"/>
<path d="M63.0071 82.3907C63.3882 82.3907 63.7362 82.3239 63.9185 82.2405V81.0722C63.7859 81.1222 63.554 81.1556 63.3385 81.1556C62.6094 81.1556 61.9963 80.8051 61.9963 79.8871V74.3461H63.9185V73.2947H61.9963V70.6744L60.654 71.125V73.2947H59.3615V74.3461H60.654V79.9539C60.654 81.5895 61.5489 82.3907 63.0071 82.3907Z" fill="#FF6300"/>
<path d="M76.1488 82.3907C76.5299 82.3907 76.8779 82.3239 77.0602 82.2405V81.0722C76.9276 81.1222 76.6956 81.1556 76.4802 81.1556C75.7511 81.1556 75.138 80.8051 75.138 79.8871V74.3461H77.0602V73.2947H75.138V70.6744L73.7957 71.125V73.2947H72.5031V74.3461H73.7957V79.9539C73.7957 81.5895 74.6906 82.3907 76.1488 82.3907Z" fill="#FF6300"/>
<path d="M80.3857 82.4741C82.4902 82.4741 83.7165 81.4394 83.7165 79.8871C83.7165 78.2015 82.4571 77.7008 81.1314 77.2C80.1868 76.8496 79.3749 76.5158 79.3749 75.5311C79.3749 74.7801 79.988 74.1959 81.0651 74.1959C81.7776 74.1959 82.4405 74.4129 82.9377 74.73L83.4182 73.7453C82.7388 73.3447 81.844 73.1111 80.9325 73.1111C79.0434 73.1111 77.9663 74.1292 77.9663 75.5311C77.9663 77.15 79.2091 77.7175 80.4686 78.1848C81.5125 78.5687 82.2748 78.9359 82.2748 79.8871C82.2748 80.7717 81.5125 81.3392 80.3691 81.3392C79.6565 81.3392 78.828 81.1055 78.2315 80.7717L77.7343 81.8399C78.5297 82.2571 79.4577 82.4741 80.3857 82.4741Z" fill="#FF6300"/>
<path d="M112.819 82.2905H114.195V75.9817C114.195 74.2293 112.985 73.1111 111.146 73.1111C109.837 73.1111 108.776 73.6285 108.23 74.1459C107.749 73.5784 106.788 73.1111 105.396 73.1111C104.236 73.1111 103.175 73.3781 102.314 73.7453V82.2905H103.706V74.5631C104.153 74.3795 104.766 74.246 105.479 74.246C106.722 74.246 107.567 74.8635 107.567 75.8816V82.2905H108.942V75.0137C109.373 74.5464 110.052 74.246 110.881 74.246C112.008 74.246 112.819 74.9303 112.819 76.0986V82.2905Z" fill="#FF6300"/>
<path fill-rule="evenodd" clip-rule="evenodd" d="M71.5174 81.8399C70.8878 82.1903 69.6118 82.4741 68.4352 82.4741C65.9827 82.4741 64.7564 81.4226 64.7564 79.7203C64.7564 77.15 67.5072 76.7661 70.2083 76.6159V75.9317C70.2083 74.5965 69.33 74.1792 68.0872 74.1792C67.2587 74.1792 66.2312 74.4463 65.6512 74.73L65.2867 73.7453C65.9661 73.4282 67.093 73.1111 68.2031 73.1111C70.2083 73.1111 71.5174 73.9122 71.5174 76.0485V81.8399ZM70.2083 77.5839V81.1389C69.8934 81.2891 69.0815 81.4226 68.4021 81.4226C66.8443 81.4226 66.0655 80.7383 66.0655 79.6868C66.0655 77.8273 68.1976 77.702 70.1775 77.5857L70.2083 77.5839Z" fill="#FF6300"/>
<path fill-rule="evenodd" clip-rule="evenodd" d="M92.2195 77.6174C92.2195 81.0053 90.4299 82.4741 87.9277 82.4741C86.8339 82.4741 85.7733 82.1903 85.094 81.8399V69.189H86.4859V73.5617C86.9499 73.3447 87.6625 73.1611 88.3419 73.1611C90.6453 73.1611 92.2195 74.8468 92.2195 77.6174ZM88.1596 74.2627C89.767 74.2627 90.8276 75.5478 90.8276 77.7008C90.8276 80.2878 89.5847 81.3392 87.9939 81.3392C87.3808 81.3392 86.7843 81.2056 86.4859 81.0555V74.6299C86.9002 74.4129 87.5631 74.2627 88.1596 74.2627Z" fill="#FF6300"/>
<path fill-rule="evenodd" clip-rule="evenodd" d="M100.881 77.7843C100.881 80.4546 99.5553 82.4741 97.0863 82.4741C94.6172 82.4741 93.2915 80.4546 93.2915 77.7843C93.2915 75.1139 94.6172 73.1111 97.0863 73.1111C99.5553 73.1111 100.881 75.1139 100.881 77.7843ZM97.0863 74.246C98.7102 74.246 99.5056 75.698 99.5056 77.7675C99.5056 79.8371 98.7102 81.3225 97.0863 81.3225C95.4623 81.3225 94.6669 79.8371 94.6669 77.7675C94.6669 75.698 95.4623 74.246 97.0863 74.246Z" fill="#FF6300"/>
<path fill-rule="evenodd" clip-rule="evenodd" d="M123.082 77.6174C123.082 81.0053 121.292 82.4741 118.79 82.4741C117.697 82.4741 116.636 82.1903 115.956 81.8399V69.189H117.348V73.5617C117.812 73.3447 118.525 73.1611 119.204 73.1611C121.508 73.1611 123.082 74.8468 123.082 77.6174ZM119.022 74.2627C120.63 74.2627 121.69 75.5478 121.69 77.7008C121.69 80.2878 120.448 81.3392 118.856 81.3392C118.243 81.3392 117.646 81.2056 117.348 81.0555V74.6299C117.763 74.4129 118.425 74.2627 119.022 74.2627Z" fill="#FF6300"/>
</g>
<path d="M144.767 79.27V73H149.437V74.0545H146.069V75.6125H148.72V76.6195H146.069V78.2155H149.569V79.27H144.767Z" fill="black"/>
<path d="M143.635 73L141.371 79.27H139.852L137.578 73H138.956L140.267 76.99L140.625 78.225L140.975 76.9995L142.295 73H143.635Z" fill="black"/>
<path d="M136.45 73V79.27H135.148V73H136.45Z" fill="black"/>
<path d="M130.595 78.2155H133.879V79.27H129.293V73H130.595V78.2155Z" fill="black"/>
<defs>
<clipPath id="clip0_272_1964">
<rect width="123.828" height="19" fill="white" transform="translate(0.431152 65.5)"/>
</clipPath>
</defs>
</svg>
